img/header/map.svg

<svg width="14.708" height="21" fill="none" xmlns="http://www.w3.org/2000/svg"><path d="M7.42 4.6c-1.48 0-2.69 1.2-2.69 2.68 0 1.48 1.21 2.69 2.69 2.69s2.68-1.21 2.68-2.69S8.9 4.6 7.42 4.6Zm0 4.6a1.92 1.92 0 0 1 0-3.84c1.05 0 1.92.86 1.92 1.92S8.47 9.2 7.42 9.2Z" fill="#FFF"/><path d="M12.55 2.15A7.307 7.307 0 0 0 7.35 0c-1.96 0-3.81.76-5.2 2.15-2.57 2.57-2.89 7.41-.69 10.34L7.35 21l5.88-8.5c2.21-2.94 1.89-7.78-.68-10.35Zm.06 9.9-5.26 7.6-5.27-7.61C.09 9.38.37 5.01 2.69 2.69A6.576 6.576 0 0 1 7.35.76c1.76 0 3.41.69 4.66 1.93 2.32 2.32 2.6 6.69.6 9.36Z" fill="#FFF"/></svg>

<svg width="14.708099" height="21.000000" viewBox="0 0 14.7081 21" fill="none" xmlns="http://www.w3.org/2000/svg" xmlns:xlink="http://www.w3.org/1999/xlink">
	<desc>
			Created with Pixso.
	</desc>
	<defs/>
	<path d="M7.42 4.6C5.94 4.6 4.73 5.8 4.73 7.28C4.73 8.76 5.94 9.97 7.42 9.97C8.9 9.97 10.1 8.76 10.1 7.28C10.1 5.8 8.9 4.6 7.42 4.6ZM7.42 9.2C6.36 9.2 5.5 8.34 5.5 7.28C5.5 6.22 6.36 5.36 7.42 5.36C8.47 5.36 9.34 6.22 9.34 7.28C9.34 8.34 8.47 9.2 7.42 9.2Z" fill="#FFFFFF" fill-opacity="1.000000" fill-rule="nonzero"/>
	<path d="M12.55 2.15C11.16 0.76 9.31 0 7.35 0C5.39 0 3.54 0.76 2.15 2.15C-0.42 4.72 -0.74 9.56 1.46 12.49L7.35 21L13.23 12.5C15.44 9.56 15.12 4.72 12.55 2.15ZM12.61 12.05L7.35 19.65L2.08 12.04C0.09 9.38 0.37 5.01 2.69 2.69C3.94 1.45 5.59 0.76 7.35 0.76C9.11 0.76 10.76 1.45 12.01 2.69C14.33 5.01 14.61 9.38 12.61 12.05Z" fill="#FFFFFF" fill-opacity="1.000000" fill-rule="nonzero"/>
</svg>
